X:1     
B:Broadwood, L, 1893, English County Songs, London, Leadenhall Press
S:H. M. Bower, Esq.
Z: Lucy Broadwood
T:All on Spurn Point
F: http://www.folkinfo.org/songs
M:4/4     %Meter
L:1/8     %
K:G
D2 |G2 G2 B2 (G3/2F/) |E2 E2 E2 E2 |A2 A2 A2 (F3/2E/) | D2 D2 D2
w:All on Spurn Point a_ ves-sel lay, All on Spurn Point, ay!_ all the day, 
B2 |d2 d2 (d/B3/2) (B/d3/2) |c2 c2 (c/B3/2) G2 |(A3/2B/) c2 E2 F2 | G2 G2 G2
w:We launched the life--boat_ true and brave,_ Ex-pect--ing ev-'ry soul to save.
B2 |d2 d2 (d/c3/2) (B/d3/2) |c2 c2 (c/B3/2) G2 |(A3/2B/) c2 E2 F2 | G2 G2 G2 z2 |]
w:"I want no help."_ the_ cap-tain cried,_ "She will_ come off with flow-ing tide."